src/main/resources/icons/AllIcons/actions/install_dark.svg

<svg xmlns="http://www.w3.org/2000/svg" width="16" height="16" viewBox="0 0 16 16"><rect id="frame" width="16" height="16" fill="none"/><g fill="none" fill-rule="evenodd"><path fill="#499C54" d="M7 6H4l4 4 4-4H9V1H7z"/><path fill="#AFB1B3" d="M2 11h12v3H2v-3zm10 1v1h1v-1h-1z"/></g></svg>

<!-- Copyright 2000-2021 JetBrains s.r.o. Use of this source code is governed by the Apache 2.0 license that can be found in the LICENSE file. -->
<svg xmlns="http://www.w3.org/2000/svg" width="16" height="16" viewBox="0 0 16 16">
  <g fill="none" fill-rule="evenodd">
    <polygon fill="#499C54" points="9 6 12 6 8 10 4 6 7 6 7 1 9 1" transform="matrix(-1 0 0 1 16 0)"/>
    <path fill="#AFB1B3" d="M2,11 L14,11 L14,14 L2,14 L2,11 Z M12,12 L12,13 L13,13 L13,12 L12,12 Z"/>
  </g>
</svg>
